!!!SOCIAL_FUNCTION:	songs of principal social dances with corn dance
!!!PDT:	1956
!!!OTL: No_75_Baby_Alligator_Dance_Song_(b).krn
!!!LANG: Non-Tone
!!!LING_GROUP: Muskogean
!!!REG: Florida
**kern
*staff1
=1-
*clefF4
*k[f#]
*M2/4
8.d\L
16B\Jk
8B\
8r
=2
8d\L
8B\J
8.d\L
16d\Jk
=3||
*M3/4
(12B\L
12A\)
12G\J
4G\
4r
=4||
*M2/4
8.G\L
16G\Jk
8.B\L
16d\Jk
=5||
*M3/4
(12B\L
12A\)
12G\J
4G\
8.r
16G\
=6||
*M2/4
8.G\L
16d\Jk
8.B\L
16d\Jk
=7!|:
*M3/4
12B\L
12A\
12B\J
8G\L
[8E\J
4E\]
=8||
*M2/4
8.E\L
16E\Jk
4G\
=9
8G\L
16G\L
16G\JJ
8G\L
8B\J
=10
8B\L
(16B\L
16A\JJ)
8A\L
8G\J
=11
4E\
4r
=12||
*M3/4
8.r
16G\
8.G\L
16d\Jk
8.B\L
16d\Jk
=13
12B\L
12A\
12B\J
8G\L
[8E\J
4E\]
=14||
*M2/4
8.E\L
16E\Jk
4G\
=15
8G\L
8G\J
4B\
=16
8A\L
8G\J
4E\
=17
=
8.r
16G\
8.G\L
16G\Jk
=18
8.d\L
16d\Jk
8.B\L
16d\Jk
=19:|!
2r
=20
*M3/8
16B\LL
16B\J
8B\
8A\J
=21||
*M2/4
16G\LL
16G\J
8G\J
8r
8E\
=22||
*M3/8
16G\LL
16G\J
8G\
8A\J
=23
16G\LL
16G\J
8G\
8A\J
=24
16B\LL
16B\J
8B\
8A\J
=25
16G\LL
16G\J
8G\J
8r
=26
4r
8E\
=27
16G\LL
16G\J
8G\
8A\J
=28
16G\LL
16G\J
8G\
8c\J
=29
16B\LL
16B\J
8B\
8A\J
=30||
*M2/4
16G\LL
16G\J
8G\J
8r
8A\
=31||
*M3/8
16B\LL
16B\J
8B\
8A\J
=32
16G\LL
16G\J
8G\J
8r
==
*-
